icons/svg/icons8/museum.svg

<?xml version="1.0" encoding="utf-8"?>
<!-- Generator: Adobe Illustrator 15.0.0, SVG Export Plug-In . SVG Version: 6.00 Build 0)  -->
<!DOCTYPE svg PUBLIC "-//W3C//DTD SVG 1.1//EN" "http://www.w3.org/Graphics/SVG/1.1/DTD/svg11.dtd">
<svg version="1.1" id="Layer_1" xmlns="http://www.w3.org/2000/svg" xmlns:xlink="http://www.w3.org/1999/xlink" x="0px" y="0px"
	 width="26px" height="26px" viewBox="0 0 26 26" enable-background="new 0 0 26 26" xml:space="preserve">
<rect x="902" y="1469" fill="#333333" width="26" height="2"/>
<rect x="902" y="1489" fill="#333333" width="26" height="2"/>
<rect x="906" y="1474" fill="#333333" width="18" height="2"/>
<rect x="902" y="1479" fill="#333333" width="26" height="2"/>
<rect x="906" y="1484" fill="#333333" width="18" height="2"/>
<rect x="902" y="1467" fill="none" width="26" height="26"/>
<rect fill="none" width="26" height="26"/>
<path fill="#333333" d="M1,26c-0.551,0-1-0.449-1-1v-2c0-0.551,0.449-1,1-1h24c0.551,0,1,0.449,1,1v2c0,0.551-0.449,1-1,1H1z"/>
<path fill="#333333" d="M1,9C0.449,9,0,8.551,0,8V7c0-0.551,0.422-0.719,1-1l12-6l12,6c0.578,0.281,1,0.449,1,1v1
	c0,0.551-0.449,1-1,1H1z"/>
<path fill="#333333" d="M16,11c0,0.551-0.449,1-1,1h-4c-0.551,0-1-0.449-1-1v-1h6V11z"/>
<path fill="#333333" d="M15,21h-4V11c0-0.551,0.449-1,1-1h2c0.551,0,1,0.449,1,1V21z"/>
<path fill="#333333" d="M24,11c0,0.551-0.449,1-1,1h-4c-0.551,0-1-0.449-1-1v-1h6V11z"/>
<path fill="#333333" d="M23,21h-4V11c0-0.551,0.449-1,1-1h2c0.551,0,1,0.449,1,1V21z"/>
<path fill="#333333" d="M8,11c0,0.551-0.449,1-1,1H3c-0.551,0-1-0.449-1-1v-1h6V11z"/>
<path fill="#333333" d="M7,21H3V11c0-0.551,0.449-1,1-1h2c0.551,0,1,0.449,1,1V21z"/>
</svg>

<svg width="26" height="26" viewBox="0 0 26 26" fill="none" xmlns="http://www.w3.org/2000/svg">
<g clip-path="url(#clip0)">
<path d="M1 26C0.449 26 0 25.551 0 25V23C0 22.449 0.449 22 1 22H25C25.551 22 26 22.449 26 23V25C26 25.551 25.551 26 25 26H1Z" fill="#333333"/>
<path d="M1 9C0.449 9 0 8.551 0 8V7C0 6.449 0.422 6.281 1 6L13 0L25 6C25.578 6.281 26 6.449 26 7V8C26 8.551 25.551 9 25 9H1Z" fill="#333333"/>
<path d="M16 11C16 11.551 15.551 12 15 12H11C10.449 12 10 11.551 10 11V10H16V11Z" fill="#333333"/>
<path d="M15 21H11V11C11 10.449 11.449 10 12 10H14C14.551 10 15 10.449 15 11V21Z" fill="#333333"/>
<path d="M24 11C24 11.551 23.551 12 23 12H19C18.449 12 18 11.551 18 11V10H24V11Z" fill="#333333"/>
<path d="M23 21H19V11C19 10.449 19.449 10 20 10H22C22.551 10 23 10.449 23 11V21Z" fill="#333333"/>
<path d="M8 11C8 11.551 7.551 12 7 12H3C2.449 12 2 11.551 2 11V10H8V11Z" fill="#333333"/>
<path d="M7 21H3V11C3 10.449 3.449 10 4 10H6C6.551 10 7 10.449 7 11V21Z" fill="#333333"/>
</g>
<defs>
<clipPath id="clip0">
<rect width="26" height="26" fill="white"/>
</clipPath>
</defs>
</svg>
